X:1
T:Title
%%score { ( 1 3 ) | ( 2 4 ) }
L:1/8
M:4/4
K:D
V:1 treble nm="Grand Piano"
V:3 treble 
V:2 bass 
V:4 bass 
V:1
 z4 z2[Q:1/4=100] [FA]2 | [FA]2 [DF][EG] [FA]3 [FA] | BdcB [FB]2 [FA][FA] | %3
 [CEA]2 [CE][DF] [EG]3 [EG] | [Gc][GB][FA][EG] [DF]3 [FA] | [FA]2 [DF][EG] [FA]3 [FA] | %6
 BdcB [FB]2 [FA][FA] | A2 E2 c3 d |[M:7/8] cBF ^G [CA]3 |[M:1/8] [CA] | %10
[M:4/4] [CG]2 [DG]2 [EG]3 [EG] | FEFG [FA]3 [FA] | BBBB [^Gd][Gd][Ec][EB] | %13
 [Ec]8[K:bass][K:treble] | d2 [Gc]2 [Fd]3 [FA] | BedB [FA]3 [EG] | [DF][CE]FG A2 [Fd]2 | %17
[M:7/8] e2 c2 [Fd]3 |] %18
V:2
 z4 z2 [D,D]2 | [D,D]2 [D,A,]2 [D,D]3 [D,D] | [G,DG][G,B,G][G,CG][G,DG][K:bass] [D,D]2 [D,D][D,D] | %3
 A,,2 [A,,A,]2 [A,,A,]3 [A,,A,] | [A,,A,][A,,A,][A,,A,][A,,A,] [D,A,]3 [D,D] | %5
 [D,D]2 [D,A,]2 [D,D]3 [D,D] | [G,DG][G,B,G][G,CG][G,DG][K:bass] [D,D]2 [D,D][D,D] | %7
 [E,CE]2 [E,A,C]2 [E,A,E]3 [E,B,E] |[M:7/8] [E,A,E][E,^G,D][E,B,D] [E,B,D] [A,,A,]3 | %9
[M:1/8] [A,,A,] |[M:4/4] [A,,A,]2 [B,,A,]2 [C,A,]3 [A,,A,] | %11
 [D,A,D][G,A,C][F,A,D][E,A,E] [D,D]3 [D,D] | %12
 [G,DG][G,DG][G,DG][G,B,G][K:bass] [E,B,][E,B,][E,A,][E,^G,] | A,4 z2 z [G,A,E] | %14
 [F,A,D]2 [E,A,]2 [D,A,]3 [D,D] | [G,DG][G,B,G][G,B,G][G,DG][K:bass] [D,D]3 [D,A,] | %16
 [D,A,][A,,A,][D,A,D][E,A,C] [F,D]2 [D,A,]2 |[M:7/8][K:treble] [G,B,G]2 [A,G]2[K:bass] [D,A,]3 |] %18
V:3
 x8 | x8 | x8 | x8 | x8 | x8 | x8 | x8 |[M:7/8] x7 |[M:1/8] x |[M:4/4] x8 | x8 | x8 | %13
 z[K:bass] A,,C,E, A,3[K:treble] A | x8 | x8 | x8 |[M:7/8] x7 |] %18
V:4
 x8 | x8 | x4[K:bass] x4 | x8 | x8 | x8 | x4[K:bass] x4 | x8 |[M:7/8] x7 |[M:1/8] x |[M:4/4] x8 | %11
 x8 | x4[K:bass] x4 | .A,,2 z2 z4 | x8 | x4[K:bass] x4 | x8 |[M:7/8][K:treble] x4[K:bass] x3 |] %18

